Sources/Octicons.swift/Resources/Media.xcassets/x-circle-fill-24.imageset/x-circle-fill-24.svg

<svg xmlns="http://www.w3.org/2000/svg" viewBox="0 0 24 24" width="24" height="24">  <path fill-rule="evenodd" clip-rule="evenodd" d="M1 12C1 5.92487 5.92487 1 12 1C18.0751 1 23 5.92487 23 12C23 18.0751 18.0751 23 12 23C5.92487 23 1 18.0751 1 12ZM9.03649 7.97577C8.7436 7.68288 8.26873 7.68288 7.97583 7.97577C7.68294 8.26867 7.68294 8.74354 7.97583 9.03643L10.9393 11.9999L7.97583 14.9633C7.68294 15.2562 7.68294 15.731 7.97583 16.0239C8.26873 16.3168 8.7436 16.3168 9.03649 16.0239L11.9999 13.0605L14.9633 16.0239C15.2562 16.3168 15.7311 16.3168 16.024 16.0239C16.3169 15.731 16.3169 15.2562 16.024 14.9633L13.0606 11.9999L16.024 9.03643C16.3169 8.74354 16.3169 8.26867 16.024 7.97577C15.7311 7.68288 15.2562 7.68288 14.9633 7.97577L11.9999 10.9392L9.03649 7.97577Z"></path></svg>

<svg xmlns="http://www.w3.org/2000/svg" width="24" height="24" viewBox="0 0 24 24"><path d="M1 12C1 5.925 5.925 1 12 1s11 4.925 11 11-4.925 11-11 11S1 18.075 1 12Zm8.036-4.024a.751.751 0 0 0-1.042.018.751.751 0 0 0-.018 1.042L10.939 12l-2.963 2.963a.749.749 0 0 0 .326 1.275.749.749 0 0 0 .734-.215L12 13.06l2.963 2.964a.75.75 0 0 0 1.061-1.06L13.061 12l2.963-2.964a.749.749 0 0 0-.326-1.275.749.749 0 0 0-.734.215L12 10.939Z"/></svg>
